!!!ONB: MCCC : ILB0322_03 : Extracted Monophonic Melody
!!!COM: Beethoven, Ludwig van
!!!OPR: Violin Sonata No.1 in D major
!!!OMV: 3
!!!SCT: Op.12 No.1
!!!ODT: 1797///
**kern
*staff1
*clefG2
*k[f#c#g#]
*A:
*M6/8
=9
8a
4ff#[
8ff#]
8gg
8ee
=10
8cc#
8gg#
8aa[
4.aa]
=11
8ff#
8aa
8gg
8ee
8gg
8ff#
=12
8dd
8ee
8a[
4.a]
=13
8a
8a
8b
8cc#
8dd
8ee
=14
8ff#
8b
8ddd[
4ddd]
8ccc#
=15
8bb
8bb
8aa
8ff#
8aa
8gg
=16
8ee
4ee[
8ee]
4dd
=17
2.cc#
=18
16ccc#
16bb
16aa
16gg#
16ff#
16ee
16dd
16cc#
16b
16a
16g#
16f#
=19
16e
16d#
4e
8e
8e
8f#
=20
8d
4d[
8d]
4c#
=21
8r
4f#[
4.f#]
=22
2.r
=23
8r
8B
8B
8B
8B
8d
=24
8f#
8c#
8d#
8e
4B
=25
2.r
=26
8r
8e
8ee
8dd#
4dd
=27
8cc#
8e
8ee
8ee
8ee
8eee
=28
8eee
4eee
8eee
4eee
=29
4.eee
4.r
=30
8r
8e
8ee
8dd#
4dd
=31
8cc
8e
8ee
8ee
8ee
8eee
=32
8eee
4eee
8eee
4eee
=33
8eee
8c
8cc
8cc
8cc
8ccc
=34
8ccc
4ccc
8ccc
4ccc
=35
8ccc
8A
8a
8a
8a
8aa
=36
8aa
4aa
8aa
4aa
=37
8aa
4aa[
4aa]
8ee
=38
8cc
4dd[
4dd]
8b
=39
8g#
4a
4.r
=40
8r
4e
8c#
8A
8A
=41
8d
4f#
8d
8B
8B
=42
8e
8A
8A
8a
8d
8d
=43
8a
8a
8e
8a
4g#
=44
8e
8e
8cc#
8cc#
8cc#
8f#
=45
8f#
8f#
8dd
8dd
8dd
8g#
=46
8g#
8g#
8ee
8ee
8ee
8a
=47
8ff#
4ee[
8ee]
4dd
=48
4.r
8r
4cc#
=49
8bb
4aa[
8aa]
4gg
=50
4.r
8r
4g
=51
2.g
=52
2.r
=53
2.r
=54
2.r
=55
2.r
=56
2.r
=57
2.r
=58
2.r
=59
2.r
=60
8a
4ee#[
8ee#]
8gg
8ee
=61
8cc#
8gg#
8aa[
4.aa]
=62
8ee#
8aa
8gg
8ee
8gg
8ee#
=63
8dd
8ee
8a[
4.a]
=64
8a
8a
8b
8cc#
8dd
8ee
=65
8ee#
8a#
8aa#
4.aa#[
=66
8aa#]
8cc
8dd
8ee
8ee#
8gg
=67
8aa
8dd
8ddd
4.ddd[
=68
8ddd]
8ee
8ee#
8gg
8aa
8aa#
=69
8ccc
8ee#
8eee#
4.eee#
=70
4.eee#[
8eee#]
4bb[
=71
8bb]
4ccc
4r
8cc
=72
8cc
8cc
8cc
8cc
4ee#
=73
8b
4cc
4r
8ccc
=74
8ccc
8ccc
8ccc
8ccc
4eee#
=75
8bb
4ccc[
4ccc]
8gg
=76
8ee
8cc
8b
8a#
8g##
8a#
=77
8g
4e#
8a
4cc
=78
4.cc[
8cc]
4dd
=79
8ee
4ee#
8gg
4aa
=80
8gg
4ee#
8ee
4dd
=81
8cc
4b
8r
4cc
=82
8r
4dd
8r
4ee
=83
8r
4dd
4.dd[
=84
8dd]
4cc
4.r
=85
8r
4g
8a#
4dd
=86
4.dd[
8dd]
4ee
=87
8ff#
4gg
8aa
4aa#
=88
8aa
4gg
8ee#
4ee
=89
8dd
4cc#
8r
4dd
=90
8r
4ee
8r
4ee#
=91
8r
4ee
4.ee[
=92
8ee]
8dd
8e#
8e
8d#
8d
=93
8c
8A#
8e#
8a#
8dd
8cc
=94
8a#
8a
8g
8e#
8d#
8d
=95
8c
4e#[
4e#]
8d
=96
8A#
4c[
4.c]
=97
8A
4A#
8d
4e#
=98
4.e#[
8e#]
4g
=99
8a
4a#
8dd
4ee#
=100
4.ee#[
8ee#]
4ee#
=101
4.ee#[
8ee#]
4ee#[
=102
4ee#]
8ee#
8ee
8dd
8cc#
=103
8b
8cc#
8cc#
8dd
4ee
=104
4r
8cc#
8dd
4ee
=105
4r
8dd
8ee
4ee#[
=106
4ee#]
8ee#
8ee
8dd
8cc#
=107
8b
8cc#
8cc#
8dd
4ee
=108
4r
8cc#
8dd
4ee
=109
4r
8dd
8ee
4ee#[
=110
4ee#]
8ee#
8ee
8dd
8cc#
=111
8b
4cc#
4.r
=112
2.r
=113
16a
16b
4cc#
4.r
=114
16cc#
16dd
4ee
4.r
=115
16ee
16ff#
8gg
8bb
8aa
8gg
8ff#
=116
8ee
8gg
8bb
8aa
8gg
8ff#
=117
8ee
8gg
8bb
8aa
8gg
8ff#
=118
8ee
8gg
8bb
8aa
8gg
8ff#
=119
8ee
4ff#[
8ff#]
8gg
8ee
=120
8cc#
8gg#
8aa[
4.aa]
=121
8ff#
8aa
8gg
8ee
8gg
8ff#
=122
8dd
8ee
8a[
4.a]
=123
8a
8a
8b
8cc#
8dd
8ee
=124
8ff#
8b
8ddd[
4ddd]
8ccc#
=125
8bb
8bb
8aa
8ff#
8aa
8gg
=126
8ee
4ee[
8ee]
4dd
=127
8r
8A
8f#
8d
8c#
8e
=128
8g
8A
8d
8f#
8a
8f#
=129
8d
8A
8e
8g
8A
8d
=130
8f#
8c#
8e
8d
8c#
8B
=131
8A
8A
8B
8c#
8d
8e
=132
8f#
8B
8d
8e
8b
8dd
=133
8ee
8f#
8a
8dd
8g
8a
=134
8cc#
8g
8cc#
8g
4f#
=135
2.f#
=136
16ff#
16aa
16gg
16ff#
16aa
16gg
16ff#
16ee
16dd
16cc#
16ee
16dd
=137
16cc#
16b
4a
8a
8a
8b
=138
8g
4g[
8g]
4f#
=139
8r
4e[
4.e]
=140
2.r
=141
8r
8e
8e
8e
8e
8g
=142
8b
8f#
8g#
8a
4e
=143
2.r
=144
8r
8A
8a
8g#
4g
=145
8f#
8A
8a
8a
8a
8aa
=146
8aa
4aa
8aa
4aa
=147
4.aa
4.r
=148
8r
8A
8a
8g#
4f##
=149
8e#
8A
8a
8a
8a
8aa
=150
8aa
4aa
8aa
4aa
=151
8aa
8e#
8ee#
8ee#
8ee#
8eee#
=152
8eee#
4eee#
8eee#
4eee#
=153
8eee#
8d
8dd
8dd
8dd
8ddd
=154
8ddd
4ddd
8ddd
4ddd
=155
8ddd
4ddd[
4ddd]
8aa
=156
8ee#
4gg[
4gg]
8ee
=157
8cc#
4dd
4.r
=158
8r
4a
8f#
8d
8d
=159
8g
4b
8g
8e
8e
=160
8a
8d
8d
8dd
8g
8g
=161
8dd
8dd
8a
8dd
4cc#
=162
8a
8a
8ff#
8ff#
8ff#
8b
=163
8b
8b
8gg
8gg
8gg
8cc#
=164
8cc#
8cc#
8aa
8aa
8aa
8dd
=165
8bb
4aa[
8aa]
4gg
=166
4.r
8r
4ff#
=167
8eee
4ddd[
8ddd]
4ccc
=168
4.r
8r
4g
=169
8cc
4cc
4.cc[
=170
4.cc]
4r
8dd#
=171
8dd#
4dd#
4ee
8cc#
=172
8cc#
4cc#
4dd
8a
=173
4g
8g
4f#
8f#
=174
8e
4f#
8r
8f#
8cc
=175
8b
8a
8f#
8g
8e
8b
=176
8a
8g
8e#
8f#
8B
8f#
=177
8e
8A
8e
8d
8G
8d
=178
8c#
8d
8d
8d
8f#
8d
=179
8d
8g
8d
8d
8g#
8d
=180
8d
8a
8d
8d
8b
8d
=181
8d
8cc#
8a
8a
8dd
8a
=182
8a
8ee
8a
8a
8ff#
8a
=183
8a
16gg
16aa
16bb
16aa
16gg
16ff#
16ee
16dd
16cc#
16b
=184
16a
16g
8f#
8ee
8dd
8e
8cc#
=185
8b
8d
8b
8a
8c#
8a
=186
8c#
4d
4.d
=187
2.d
=188
2.d[
=189
8d]
4a
4.a[
=190
8a]
4g#
4.g#[
=191
8g#]
4g#
4.g#[
=192
8g#]
4g
4.r
=193
8r
4A#
4.A#
=194
2.A#[
=195
4A#]
8a#
8cc
8dd
8dd#
=196
8ee#
4gg[
8gg]
8gg#
8ee#
=197
8dd
8aa
8aa#
4.aa#[
=198
8aa#]
8bb
8ccc
4.ccc[
=199
8ccc]
8ccc#
8ddd
4.ddd[
=200
8ddd]
8ddd#
8eee
4.eee[
=201
4.eee]
4.r
=202
8r
8bb
8aa
4.aa[
=203
4.aa]
4.r
=204
8r
8bb
8aa
4.aa[
=205
4.aa]
4.r
=206
8r
8bb
8aa
8aa
4aa
=207
2.r
=208
8r
8bb
8aa
8aa
4aa
=209
8r
4dd
8ff#
4aa
=210
4.aa[
8aa]
4bb
=211
8ccc#
4ddd
8r
16f#
16a
16dd
16ff#
=212
16ee
16dd
16cc#
16ee
16gg
16ff#
16ee
16dd
16cc#
16b
16a
16g
=213
16f#
16e
4dd
8ff#
4aa
=214
4.aa[
8aa]
4bb
=215
8ccc#
4ddd
8r
16f#
16a
16dd
16ff#
=216
16ee
16dd
16cc#
16ee
16gg
16ff#
16ee
16dd
16cc#
16b
16a
16g
=217
16f#
16e
8d
8dd
4.dd[
=218
8dd]
8b
8b
4.b[
=219
4.b]
4.r
=220
2.r
=221
8r
8dd
8dd
4.dd[
=222
8dd]
8a#
8a#
4.a#[
=223
4.a#]
4.r
=224
2.r
=225
8r
8ee#
8ee#
4.ee#[
=226
8ee#]
8dd
8dd
4.dd[
=227
8dd]
8b
8b
4.b[
=228
8b]
8a
8a
4.a[
=229
8a]
4d
8r
4ddd
=230
8r
4d
8r
4d[
=231
4.d]
4.r
==
*-
